X:830
T:Aird Ranters, The
C:Fred Morrison
S:Derek Hoy
Z:Nigel Gatherer
M:4/4
L:1/8
K:ADor
e<aa>e g<ee>d | e2 e<a g<e d2 | e<aa>e g<ee>d |1 c<AA>G c<A A2  :|
                                               2 c<AA>G c<A A>B ||
c2 B<d c<AA>G | c<AA>G c<AA>B | c2 B<d c<AA>G |1 c<AA>G A2 A>B  :|
                                               2 c<AA>G A4      ||
<end>
<start>
